X:14
T:Chords 2
T:Plead for Slough
T:Speed The Plough (arr.)
M:4/4
L:1/8
H:Illustrative file for abc tutorial
F:http://www.lesession.co.uk/abc/abc_notation_part2.htm
N:The tune that should be the English national anthem,
N:renamed in this version in honour of the John Betjeman poem
C:Trad.arr. Steve Mansfield June 2000
R:reel
P:(2A2B)ad infinitum
Z:Steve Mansfield 6/6/2000
K:G
P:A
"G" (GAB)c dedB | "G" .d.e.d.B dedB |
"Am" c2ec "D7" B2dB | "D"A2"Dm"A2 "Am" A2BA |
"G" (GABc d)edB | "G" .d.e.d.B dedB | "C" ~c2ec "G" ~B2dB- |
"D7" BA A2 "G" ~G4 ::
P:B
"C" g2g2 {GABcdef}g4 | "G" g2fe dBGB |
"Am" cAEc "Bm"BGDB | "F#m"A2A2 "D"A4 |
"C"g2g2 "G"g4 | "G"g2fe dBGB |
"C" (5cdedc "Am" ec"Bm"B2"~G"dB |
"A"[A2c2]"Am"[A2a2] "G"[G4B4d4g4] :|

